;START_OF_HEADER
;HEADER_VERSION:0.1
;FLAVOR:Griffin
;GENERATOR.NAME:Cura_SteamEngine
;GENERATOR.VERSION:5.10.0
;GENERATOR.BUILD_DATE:2025-03-21
;TARGET_MACHINE.NAME:Ultimaker S5
;EXTRUDER_TRAIN.0.INITIAL_TEMPERATURE:250
;EXTRUDER_TRAIN.0.MATERIAL.VOLUME_USED:9486
;EXTRUDER_TRAIN.0.MATERIAL.GUID:2f9d2279-9b0e-4765-bf9b-d1e1e13f3c49
;EXTRUDER_TRAIN.0.NOZZLE.DIAMETER:0.4
;EXTRUDER_TRAIN.0.NOZZLE.NAME:AA 0.4
;BUILD_PLATE.INITIAL_TEMPERATURE:85
;BUILD_VOLUME.TEMPERATURE:36
;PRINT.TIME:3048
;PRINT.GROUPS:1
;PRINT.SIZE.MIN.X:148.45
;PRINT.SIZE.MIN.Y:22.95
;PRINT.SIZE.MIN.Z:0.2
;PRINT.SIZE.MAX.X:330
;PRINT.SIZE.MAX.Y:237
;PRINT.SIZE.MAX.Z:20.001
;SLICE_UUID:7325bdc0-a76b-4b93-89cd-cdbcaf489e15
;END_OF_HEADER
;Generated with Cura_SteamEngine 5.10.0
T0

M82 ;absolute extrusion mode
G92 E0
M190 S85
M104 S250
M109 S250
G280 S1
G0 Z20.001
G1 F2700 E-6.5
;LAYER_COUNT:16
G0 F9000 X330 Y237
;LAYER:0
M106 S5.1
M204 S1500
M205 X30 Y30
G0 X181.55 Y211.072 Z0.2
;TYPE:SKIRT
G1 F900 E0
G1 F1800 X180.706 Y213.534 E0.03264
G1 X178.656 Y215.769 E0.07067
G1 X176.595 Y216.72 E0.09913
G1 X174.856 Y217.05 E0.12133
G1 X154.803 Y217.046 E0.3728
G1 X152.992 Y216.637 E0.39609
G1 X151.018 Y215.447 E0.42499
G1 X149.248 Y213.435 E0.4586
G1 X148.45 Y210.685 E0.4945
G1 X148.45 Y176.494 E0.92327
G1 X149.262 Y173.71 E0.95964
G1 X149.679 Y172.117 E0.98029
G1 X150.065 Y170.501 E1.00113
G1 X150.246 Y169.698 E1.01145
G1 X150.541 Y168.195 E1.03066
G1 X150.861 Y166.395 E1.05358
G1 X151.099 Y164.783 E1.07402
G1 X151.313 Y163.103 E1.09525
G1 X151.483 Y161.45 E1.11609
G1 X151.608 Y159.805 E1.13678
G1 X151.69 Y158.299 E1.15569
G1 X151.745 Y156.47 E1.17864
G1 X151.757 Y154.912 E1.19818
G1 X151.726 Y153.254 E1.21898
G1 X151.695 Y152.334 E1.23052
G1 X151.615 Y150.914 E1.24835
G1 X151.468 Y149.052 E1.27178
G1 X151.468 Y90.942 E2.0005
G1 X151.617 Y89.086 E2.02385
G1 X151.693 Y87.484 E2.04396
G1 X151.746 Y85.737 E2.06588
G1 X151.756 Y84.947 E2.07579
G1 X151.746 Y83.35 E2.09581
G1 X151.672 Y81.19 E2.12292
G1 X151.534 Y79.102 E2.14916
G1 X151.382 Y77.446 E2.17001
G1 X151.086 Y75.058 E2.20019
G1 X150.84 Y73.48 E2.22022
G1 X150.541 Y71.796 E2.24166
G1 X150.229 Y70.259 E2.26133
G1 X150.017 Y69.297 E2.27369
G1 X149.647 Y67.741 E2.29374
G1 X148.991 Y65.316 E2.32525
G1 X148.45 Y63.507 E2.34892
G1 X148.45 Y28.764 E2.78461
G1 X149.299 Y26.537 E2.8145
G1 X150.811 Y24.762 E2.84374
G1 X152.792 Y23.46 E2.87347
G1 X154.976 Y22.95 E2.90159
G1 X175.736 Y22.95 E3.16193
G1 X177.963 Y23.799 E3.19182
G1 X179.738 Y25.311 E3.22106
G1 X181.04 Y27.292 E3.25079
G1 X181.55 Y29.476 E3.27891
G1 X181.55 Y63.505 E3.70565
G1 X180.738 Y66.29 E3.74203
G1 X180.321 Y67.883 E3.76268
G1 X179.935 Y69.499 E3.78351
G1 X179.751 Y70.313 E3.79398
G1 X179.452 Y71.834 E3.81342
G1 X179.139 Y73.605 E3.83597
G1 X178.901 Y75.217 E3.85641
G1 X178.687 Y76.897 E3.87764
G1 X178.517 Y78.55 E3.89848
G1 X178.392 Y80.195 E3.91917
G1 X178.31 Y81.701 E3.93809
G1 X178.255 Y83.53 E3.96103
G1 X178.243 Y85.088 E3.98057
G1 X178.274 Y86.635 E3.99997
G1 X178.307 Y87.667 E4.01292
G1 X178.385 Y89.073 E4.03058
G1 X178.532 Y90.948 E4.05417
G1 X178.532 Y149.058 E4.78289
G1 X178.381 Y150.937 E4.80653
G1 X178.307 Y152.515 E4.82634
G1 X178.254 Y154.263 E4.84827
G1 X178.244 Y155.053 E4.85818
G1 X178.254 Y156.458 E4.8758
G1 X178.314 Y158.312 E4.89906
G1 X178.349 Y159.115 E4.90914
G1 X178.449 Y160.724 E4.92935
G1 X178.6 Y162.37 E4.95008
G1 X178.893 Y164.807 E4.98086
G1 X179.159 Y166.511 E5.00249
G1 X179.459 Y168.204 E5.02405
G1 X179.767 Y169.731 E5.04359
G1 X179.951 Y170.584 E5.05453
G1 X180.329 Y172.169 E5.07496
G1 X180.55 Y173.041 E5.08624
G1 X180.968 Y174.546 E5.10583
G1 X181.55 Y176.497 E5.13136
G1 X181.55 Y211.072 E5.56495
G0 F9000 X181.15 Y211.006
G1 F1800 X180.355 Y213.325 E5.59569
G1 X178.416 Y215.439 E5.63166
G1 X176.472 Y216.336 E5.65851
G1 X174.818 Y216.65 E5.67962
G1 X154.847 Y216.646 E5.93007
G1 X153.144 Y216.261 E5.95196
G1 X151.276 Y215.135 E5.97931
G1 X149.607 Y213.238 E6.011
G1 X148.85 Y210.629 E6.04507
G1 X148.85 Y176.551 E6.47242
G1 X149.646 Y173.822 E6.50807
G1 X150.066 Y172.218 E6.52886
G1 X150.454 Y170.594 E6.5498
G1 X150.639 Y169.775 E6.56033
G1 X150.934 Y168.272 E6.57954
G1 X151.255 Y166.465 E6.60255
G1 X151.495 Y164.841 E6.62314
G1 X151.71 Y163.154 E6.64446
G1 X151.881 Y161.491 E6.66543
G1 X152.007 Y159.835 E6.68626
G1 X152.09 Y158.311 E6.7054
G1 X152.145 Y156.482 E6.72834
G1 X152.157 Y154.915 E6.74799
G1 X152.126 Y153.247 E6.76891
G1 X152.095 Y152.321 E6.78053
G1 X152.014 Y150.883 E6.79859
G1 X151.867 Y149.021 E6.82202
G1 X151.867 Y90.974 E7.54995
G1 X152.016 Y89.118 E7.5733
G1 X152.093 Y87.503 E7.59357
G1 X152.146 Y85.749 E7.61558
G1 X152.156 Y84.952 E7.62558
G1 X152.146 Y83.348 E7.64569
G1 X152.072 Y81.176 E7.67294
G1 X151.933 Y79.076 E7.69934
G1 X151.78 Y77.409 E7.72033
G1 X151.483 Y75.009 E7.75066
G1 X151.234 Y73.41 E7.77095
G1 X150.935 Y71.726 E7.7924
G1 X150.621 Y70.179 E7.81219
G1 X150.408 Y69.211 E7.82462
G1 X150.036 Y67.648 E7.84477
G1 X149.377 Y65.212 E7.87642
G1 X148.85 Y63.449 E7.89949
G1 X148.85 Y28.839 E8.33351
G1 X149.65 Y26.741 E8.36167
G1 X151.077 Y25.066 E8.38927
G1 X152.951 Y23.834 E8.41739
G1 X155.024 Y23.35 E8.44409
G1 X175.661 Y23.35 E8.70288
G1 X177.759 Y24.15 E8.73104
G1 X179.434 Y25.577 E8.75863
G1 X180.666 Y27.451 E8.78676
G1 X181.15 Y29.524 E8.81345
G1 X181.15 Y63.448 E9.23887
G1 X180.354 Y66.178 E9.27453
G1 X179.934 Y67.782 E9.29533
G1 X179.546 Y69.406 E9.31627
G1 X179.361 Y70.225 E9.32679
G1 X179.058 Y71.764 E9.34646
G1 X178.745 Y73.535 E9.36902
G1 X178.505 Y75.159 E9.3896
G1 X178.29 Y76.846 E9.41093
G1 X178.119 Y78.509 E9.4319
G1 X177.993 Y80.165 E9.45272
G1 X177.91 Y81.689 E9.47186
G1 X177.855 Y83.518 E9.49481
G1 X177.843 Y85.085 E9.51446
G1 X177.874 Y86.648 E9.53407
G1 X177.907 Y87.68 E9.54701
G1 X177.986 Y89.104 E9.5649
G1 X178.133 Y90.979 E9.58848
G1 X178.133 Y149.026 E10.31641
G1 X177.982 Y150.905 E10.34005
G1 X177.907 Y152.496 E10.36003
G1 X177.854 Y154.251 E10.38205
G1 X177.844 Y155.048 E10.39204
G1 X177.854 Y156.471 E10.40989
G1 X177.914 Y158.329 E10.4332
G1 X177.949 Y159.132 E10.44328
G1 X178.051 Y160.761 E10.46375
G1 X178.203 Y162.418 E10.48461
G1 X178.498 Y164.869 E10.51557
G1 X178.765 Y166.581 E10.5373
G1 X179.065 Y168.274 E10.55886
G1 X179.376 Y169.815 E10.57858
G1 X179.562 Y170.677 E10.58964
G1 X179.941 Y172.268 E10.61015
G1 X180.163 Y173.14 E10.62143
G1 X180.585 Y174.66 E10.64121
G1 X181.15 Y176.554 E10.666
G1 X181.15 Y211.006 E11.09804
G0 F9000 X180.75 Y210.94
G1 F1800 X180.004 Y213.116 E11.12689
G1 X178.176 Y215.109 E11.1608
G1 X176.349 Y215.952 E11.18603
G1 X174.78 Y216.25 E11.20606
G1 X154.891 Y216.246 E11.45547
G1 X153.298 Y215.886 E11.47596
G1 X151.533 Y214.822 E11.5018
G1 X149.967 Y213.042 E11.53153
G1 X149.25 Y210.572 E11.56378
G1 X149.25 Y176.608 E11.98971
G1 X150.03 Y173.934 E12.02464
G1 X150.453 Y172.319 E12.04557
G1 X150.843 Y170.687 E12.06661
G1 X151.029 Y169.863 E12.07721
G1 X151.328 Y168.342 E12.09665
G1 X151.649 Y166.535 E12.11966
G1 X151.891 Y164.9 E12.14039
G1 X152.107 Y163.205 E12.16182
G1 X152.279 Y161.532 E12.18291
G1 X152.406 Y159.865 E12.20387
G1 X152.49 Y158.323 E12.22324
G1 X152.545 Y156.494 E12.24618
G1 X152.557 Y154.918 E12.26595
G1 X152.526 Y153.24 E12.28699
G1 X152.495 Y152.308 E12.29869
G1 X152.413 Y150.852 E12.31698
G1 X152.266 Y148.99 E12.3404
G1 X152.266 Y91.006 E13.06754
G1 X152.415 Y89.15 E13.09089
G1 X152.493 Y87.522 E13.11133
G1 X152.546 Y85.761 E13.13342
G1 X152.556 Y84.957 E13.14351
G1 X152.546 Y83.346 E13.16371
G1 X152.486 Y81.567 E13.18603
G1 X152.453 Y80.866 E13.19483
G1 X152.332 Y79.049 E13.21767
G1 X152.178 Y77.372 E13.23879
G1 X151.88 Y74.96 E13.26926
G1 X151.628 Y73.34 E13.28982
G1 X151.329 Y71.656 E13.31127
G1 X151.013 Y70.099 E13.3312
G1 X150.798 Y69.125 E13.3437
G1 X150.423 Y67.546 E13.36406
G1 X150.193 Y66.673 E13.37538
G1 X149.762 Y65.106 E13.39576
G1 X149.25 Y63.392 E13.41819
G1 X149.25 Y28.914 E13.85056
G1 X150 Y26.947 E13.87696
G1 X151.345 Y25.368 E13.90297
G1 X153.11 Y24.208 E13.92945
G1 X155.072 Y23.75 E13.95472
G1 X175.586 Y23.75 E14.21197
G1 X177.553 Y24.5 E14.23837
G1 X179.132 Y25.845 E14.26438
G1 X180.292 Y27.61 E14.29087
G1 X180.75 Y29.572 E14.31613
G1 X180.75 Y63.391 E14.74024
G1 X179.97 Y66.066 E14.77518
G1 X179.547 Y67.681 E14.79612
G1 X179.157 Y69.313 E14.81716
G1 X178.971 Y70.137 E14.82775
G1 X178.664 Y71.694 E14.84765
G1 X178.351 Y73.465 E14.87021
G1 X178.109 Y75.1 E14.89093
G1 X177.893 Y76.795 E14.91236
G1 X177.721 Y78.468 E14.93345
G1 X177.594 Y80.135 E14.95442
G1 X177.51 Y81.677 E14.97378
G1 X177.455 Y83.506 E14.99673
G1 X177.443 Y85.082 E15.01649
G1 X177.474 Y86.661 E15.0363
G1 X177.507 Y87.693 E15.04925
G1 X177.587 Y89.135 E15.06736
G1 X177.734 Y91.01 E15.09094
G1 X177.734 Y148.994 E15.81808
G1 X177.583 Y150.873 E15.84172
G1 X177.507 Y152.477 E15.86186
G1 X177.454 Y154.239 E15.88397
G1 X177.444 Y155.043 E15.89405
G1 X177.454 Y156.484 E15.91212
G1 X177.514 Y158.346 E15.93548
G1 X177.549 Y159.149 E15.94556
G1 X177.653 Y160.798 E15.96628
G1 X177.806 Y162.466 E15.98729
G1 X178.103 Y164.931 E16.01842
G1 X178.371 Y166.651 E16.04025
G1 X178.671 Y168.344 E16.06181
G1 X178.985 Y169.899 E16.08171
G1 X179.173 Y170.77 E16.09288
G1 X179.553 Y172.367 E16.11347
G1 X179.776 Y173.239 E16.12476
G1 X180.202 Y174.774 E16.14473
G1 X180.75 Y176.611 E16.16877
G1 X180.75 Y210.94 E16.59927
G0 F9000 X180.35 Y210.874
G1 F1800 X179.653 Y212.907 E16.62622
G1 X177.936 Y214.779 E16.65808
G1 X176.226 Y215.568 E16.68169
G1 X174.742 Y215.85 E16.70064
G1 X154.935 Y215.846 E16.94902
G1 X153.45 Y215.51 E16.96812
G1 X151.791 Y214.51 E16.99241
G1 X150.326 Y212.845 E17.02022
G1 X149.65 Y210.516 E17.05063
G1 X149.65 Y176.665 E17.47514
G1 X150.414 Y174.046 E17.50935
G1 X150.84 Y172.42 E17.53043
G1 X151.232 Y170.78 E17.55157
G1 X151.419 Y169.951 E17.56223
G1 X151.722 Y168.412 E17.5819
G1 X152.043 Y166.605 E17.60492
G1 X152.287 Y164.959 E17.62578
G1 X152.504 Y163.256 E17.64731
G1 X152.677 Y161.573 E17.66853
G1 X152.805 Y159.895 E17.68963
G1 X152.89 Y158.335 E17.70922
G1 X152.945 Y156.506 E17.73217
G1 X152.957 Y154.921 E17.75205
G1 X152.926 Y153.233 E17.77322
G1 X152.895 Y152.295 E17.78499
G1 X152.812 Y150.821 E17.8035
G1 X152.665 Y148.959 E17.82693
G1 X152.665 Y91.038 E18.55328
G1 X152.814 Y89.182 E18.57663
G1 X152.893 Y87.541 E18.59723
G1 X152.946 Y85.773 E18.61941
G1 X152.956 Y84.962 E18.62958
G1 X152.946 Y83.344 E18.64987
G1 X152.886 Y81.554 E18.67233
G1 X152.852 Y80.847 E18.68121
G1 X152.731 Y79.023 E18.70413
G1 X152.576 Y77.335 E18.72539
G1 X152.277 Y74.911 E18.75602
G1 X152.022 Y73.27 E18.77684
G1 X151.723 Y71.586 E18.79829
G1 X151.405 Y70.019 E18.81834
G1 X151.189 Y69.039 E18.83093
G1 X150.812 Y67.453 E18.85137
G1 X150.58 Y66.571 E18.86281
G1 X150.148 Y65 E18.88324
G1 X149.65 Y63.334 E18.90504
G1 X149.65 Y28.989 E19.33574
G1 X150.351 Y27.151 E19.36041
G1 X151.611 Y25.672 E19.38478
G1 X153.269 Y24.582 E19.40966
G1 X155.12 Y24.15 E19.4335
G1 X175.511 Y24.15 E19.68921
G1 X177.349 Y24.851 E19.71388
G1 X178.828 Y26.111 E19.73824
G1 X179.918 Y27.769 E19.76312
G1 X180.35 Y29.62 E19.78696
G1 X180.35 Y63.334 E20.20975
G1 X179.586 Y65.954 E20.24397
G1 X179.16 Y67.58 E20.26505
G1 X178.768 Y69.22 E20.28619
G1 X178.581 Y70.049 E20.29685
G1 X178.27 Y71.624 E20.31698
G1 X177.957 Y73.395 E20.33954
G1 X177.713 Y75.041 E20.3604
G1 X177.496 Y76.744 E20.38193
G1 X177.323 Y78.427 E20.40315
G1 X177.195 Y80.105 E20.42425
G1 X177.11 Y81.665 E20.44385
G1 X177.055 Y83.494 E20.46679
G1 X177.043 Y85.079 E20.48667
G1 X177.074 Y86.674 E20.50668
G1 X177.107 Y87.706 E20.51962
G1 X177.188 Y89.166 E20.53796
G1 X177.335 Y91.041 E20.56155
G1 X177.335 Y148.962 E21.2879
G1 X177.184 Y150.841 E21.31154
G1 X177.107 Y152.458 E21.33184
G1 X177.054 Y154.227 E21.35403
G1 X177.044 Y155.038 E21.3642
G1 X177.054 Y156.497 E21.3825
G1 X177.114 Y158.363 E21.40591
G1 X177.149 Y159.166 E21.41599
G1 X177.255 Y160.835 E21.43696
G1 X177.409 Y162.514 E21.45811
G1 X177.708 Y164.992 E21.48941
G1 X177.977 Y166.721 E21.51135
G1 X178.277 Y168.414 E21.53291
G1 X178.594 Y169.984 E21.553
G1 X178.784 Y170.863 E21.56427
G1 X179.164 Y172.46 E21.58486
G1 X179.391 Y173.346 E21.59633
G1 X179.819 Y174.888 E21.6164
G1 X180.35 Y176.668 E21.63969
G1 X180.35 Y210.874 E22.06865
G0 F9000 X179.95 Y210.808
G1 F1800 X179.302 Y212.698 E22.0937
G1 X177.696 Y214.449 E22.1235
G1 X176.103 Y215.184 E22.1455
G1 X174.704 Y215.45 E22.16336
G1 X154.979 Y215.446 E22.41072
G1 X153.604 Y215.135 E22.4284
G1 X152.048 Y214.197 E22.45118
G1 X150.685 Y212.648 E22.47705
G1 X150.05 Y210.46 E22.50563
G1 X150.05 Y176.722 E22.92871
G1 X150.798 Y174.158 E22.96221
G1 X151.227 Y172.521 E22.98343
G1 X151.621 Y170.873 E23.00468
G1 X151.809 Y170.039 E23.0154
G1 X152.116 Y168.482 E23.0353
G1 X152.437 Y166.675 E23.05831
G1 X152.683 Y165.018 E23.07932
G1 X152.901 Y163.307 E23.10095
G1 X153.075 Y161.614 E23.12229
G1 X153.204 Y159.925 E23.14354
G1 X153.29 Y158.347 E23.16335
G1 X153.345 Y156.518 E23.1863
G1 X153.357 Y154.924 E23.20629
G1 X153.326 Y153.226 E23.22759
G1 X153.294 Y152.281 E23.23945
G1 X153.211 Y150.79 E23.25817
G1 X153.064 Y148.928 E23.2816
G1 X153.064 Y91.07 E24.00716
G1 X153.213 Y89.214 E24.03051
G1 X153.293 Y87.56 E24.05127
G1 X153.346 Y85.785 E24.07354
G1 X153.356 Y84.967 E24.0838
G1 X153.346 Y83.342 E24.10418
G1 X153.286 Y81.541 E24.12678
G1 X153.252 Y80.828 E24.13573
G1 X153.13 Y78.996 E24.15875
G1 X152.974 Y77.298 E24.18014
G1 X152.674 Y74.862 E24.21091
G1 X152.416 Y73.2 E24.23201
G1 X152.117 Y71.516 E24.25345
G1 X151.797 Y69.939 E24.27363
G1 X151.58 Y68.953 E24.28629
G1 X151.201 Y67.36 E24.30683
G1 X150.967 Y66.469 E24.31838
G1 X150.533 Y64.894 E24.33887
G1 X150.05 Y63.277 E24.36003
G1 X150.05 Y29.064 E24.78908
G1 X150.701 Y27.357 E24.81199
G1 X151.879 Y25.974 E24.83477
G1 X153.428 Y24.956 E24.85801
G1 X155.168 Y24.55 E24.88042
G1 X175.436 Y24.55 E25.13459
G1 X177.143 Y25.201 E25.1575
G1 X178.526 Y26.379 E25.18028
G1 X179.544 Y27.928 E25.20352
G1 X179.95 Y29.668 E25.22593
G1 X179.95 Y63.277 E25.6474
G1 X179.202 Y65.842 E25.68091
G1 X178.773 Y67.479 E25.70213
G1 X178.379 Y69.127 E25.72338
G1 X178.191 Y69.961 E25.7341
G1 X177.876 Y71.554 E25.75446
G1 X177.563 Y73.325 E25.77701
G1 X177.317 Y74.982 E25.79802
G1 X177.099 Y76.693 E25.81965
G1 X176.925 Y78.386 E25.84099
G1 X176.796 Y80.075 E25.86224
G1 X176.71 Y81.653 E25.88205
G1 X176.655 Y83.482 E25.905
G1 X176.643 Y85.076 E25.92499
G1 X176.674 Y86.687 E25.9452
G1 X176.707 Y87.719 E25.95815
G1 X176.789 Y89.197 E25.97671
G1 X176.936 Y91.072 E26.00029
G1 X176.936 Y148.93 E26.72585
G1 X176.785 Y150.809 E26.74949
G1 X176.707 Y152.439 E26.76996
G1 X176.654 Y154.215 E26.79224
G1 X176.644 Y155.033 E26.8025
G1 X176.654 Y156.51 E26.82102
G1 X176.714 Y158.38 E26.84448
G1 X176.749 Y159.183 E26.85456
G1 X176.857 Y160.872 E26.87579
G1 X177.012 Y162.562 E26.89707
G1 X177.313 Y165.053 E26.92853
G1 X177.583 Y166.791 E26.95059
G1 X177.883 Y168.484 E26.97215
G1 X178.203 Y170.069 E26.99243
G1 X178.395 Y170.956 E27.00381
G1 X178.775 Y172.553 E27.0244
G1 X179.006 Y173.453 E27.03605
G1 X179.436 Y175.002 E27.05621
G1 X179.95 Y176.725 E27.07876
G1 X179.95 Y210.808 E27.50617
G0 F9000 X179.55 Y210.742
G1 F1800 X178.951 Y212.489 E27.52933
G1 X177.456 Y214.119 E27.55707
G1 X175.98 Y214.8 E27.57745
G1 X174.666 Y215.05 E27.59423
G1 X155.023 Y215.046 E27.84056
G1 X153.758 Y214.76 E27.85682
G1 X152.305 Y213.884 E27.8781
G1 X151.044 Y212.451 E27.90203
G1 X150.45 Y210.404 E27.92876
G1 X150.45 Y176.779 E28.35043
G1 X151.182 Y174.27 E28.38321
G1 X151.614 Y172.622 E28.40457
G1 X152.01 Y170.966 E28.42593
G1 X152.199 Y170.127 E28.43671
G1 X152.51 Y168.552 E28.45684
G1 X152.831 Y166.745 E28.47986
G1 X153.079 Y165.077 E28.50101
G1 X153.298 Y163.358 E28.52274
G1 X153.473 Y161.655 E28.54421
G1 X153.603 Y159.955 E28.56559
G1 X153.69 Y158.359 E28.58563
G1 X153.745 Y156.53 E28.60858
G1 X153.757 Y154.927 E28.62868
G1 X153.726 Y153.219 E28.6501
G1 X153.694 Y152.268 E28.66203
G1 X153.61 Y150.759 E28.68099
G1 X153.463 Y148.897 E28.70441
G1 X153.463 Y91.102 E29.42918
G1 X153.612 Y89.246 E29.45253
G1 X153.693 Y87.579 E29.47346
G1 X153.746 Y85.797 E29.49582
G1 X153.756 Y84.972 E29.50616
G1 X153.746 Y83.34 E29.52663
